dist/assets/group-784.svg

<svg width="1333" height="2099" fill="none" xmlns="http://www.w3.org/2000/svg"><path d="M1333 0H75.393v2019c0 28 0 42 5.45 52.7a49.969 49.969 0 0021.851 21.85c10.696 5.45 24.697 5.45 52.699 5.45H1253c28 0 42 0 52.7-5.45a49.94 49.94 0 0021.85-21.85c5.45-10.7 5.45-24.7 5.45-52.7V0z" fill="#fff"/><g opacity=".1"><mask id="a" style="mask-type:alpha" maskUnits="userSpaceOnUse" x="1053" y="0" width="280" height="1813"><path d="M1053.54.5h278.96v1732.38c0 14.01 0 24.49-.68 32.8-.68 8.31-2.03 14.41-4.72 19.68a49.472 49.472 0 01-21.63 21.63c-5.26 2.68-11.36 4.04-19.67 4.71-8.31.68-18.79.68-32.8.68h-119.96c-14.01 0-24.49 0-32.8-.68-8.31-.67-14.41-2.03-19.67-4.71a49.546 49.546 0 01-21.64-21.63c-2.68-5.27-4.03-11.37-4.71-19.68-.68-8.31-.68-18.79-.68-32.8V.5z" fill="url(#paint0_linear_216_2013)" stroke="#6246E5"/></mask><g mask="url(#a)" stroke="#6246E5"><path d="M1403.89 919.641c0 131.429-10.96 250.399-28.66 336.509-8.86 43.05-19.39 77.86-31.08 101.9-5.84 12.01-11.96 21.31-18.27 27.6-6.32 6.28-12.8 9.52-19.38 9.52-6.58 0-13.06-3.24-19.37-9.52-6.32-6.29-12.44-15.59-18.28-27.6-11.68-24.04-22.22-58.85-31.07-101.9-17.71-86.11-28.66-205.08-28.66-336.509s10.95-250.401 28.66-336.504c8.85-43.055 19.39-77.865 31.07-101.899 5.84-12.018 11.96-21.316 18.28-27.602 6.31-6.285 12.79-9.526 19.37-9.526 6.58 0 13.06 3.241 19.38 9.526 6.31 6.286 12.43 15.584 18.27 27.602 11.69 24.034 22.22 58.844 31.08 101.899 17.7 86.103 28.66 205.075 28.66 336.504z"/><path d="M1407.75 869.533c0 146.997-12.25 280.057-32.05 376.367-9.9 48.15-21.69 87.09-34.76 113.98-6.54 13.44-13.38 23.85-20.45 30.89-7.07 7.03-14.33 10.67-21.71 10.67-7.38 0-14.64-3.64-21.71-10.67-7.08-7.04-13.92-17.45-20.46-30.89-13.07-26.89-24.85-65.83-34.75-113.98-19.81-96.31-32.06-229.37-32.06-376.367 0-146.996 12.25-280.062 32.06-376.366 9.9-48.156 21.68-87.093 34.75-113.98 6.54-13.444 13.38-23.849 20.46-30.887 7.07-7.035 14.33-10.671 21.71-10.671 7.38 0 14.64 3.636 21.71 10.671 7.07 7.038 13.91 17.443 20.45 30.887 13.07 26.887 24.86 65.824 34.76 113.98 19.8 96.304 32.05 229.37 32.05 376.366z"/><path d="M1411.62 828.82c0 160.833-13.41 306.43-35.08 411.8-10.83 52.69-23.73 95.29-38.03 124.72-7.15 14.71-14.64 26.1-22.39 33.8-7.74 7.71-15.69 11.69-23.78 11.69-8.1 0-16.05-3.98-23.79-11.69-7.74-7.7-15.24-19.09-22.39-33.8-14.3-29.43-27.2-72.03-38.03-124.72-21.67-105.37-35.07-250.967-35.07-411.8s13.4-306.426 35.07-411.798c10.83-52.69 23.73-95.296 38.03-124.719 7.15-14.712 14.65-26.101 22.39-33.806 7.74-7.703 15.69-11.689 23.79-11.689 8.09 0 16.04 3.986 23.78 11.689 7.75 7.705 15.24 19.094 22.39 33.806 14.3 29.423 27.2 72.029 38.03 124.719 21.67 105.372 35.08 250.965 35.08 411.798z"/><path d="M1414.19 769.315c0 172.94-14.41 329.495-37.71 442.795-11.65 56.66-25.52 102.48-40.9 134.12-7.69 15.82-15.75 28.07-24.08 36.36-8.33 8.29-16.89 12.58-25.6 12.58-8.72 0-17.28-4.29-25.61-12.58-8.33-8.29-16.38-20.54-24.08-36.36-15.38-31.64-29.25-77.46-40.9-134.12-23.29-113.3-37.71-269.855-37.71-442.795 0-172.941 14.42-329.495 37.71-442.801 11.65-56.657 25.52-102.474 40.9-134.115 7.7-15.822 15.75-28.073 24.08-36.361 8.33-8.288 16.89-12.58 25.61-12.58 8.71 0 17.27 4.292 25.6 12.58 8.33 8.288 16.39 20.539 24.08 36.361 15.38 31.641 29.25 77.458 40.9 134.115 23.3 113.306 37.71 269.86 37.71 442.801z"/><path d="M1416.77 711.377c0 184.616-15.39 351.743-40.26 472.693-12.44 60.49-27.24 109.4-43.66 143.18-8.22 16.89-16.82 29.97-25.72 38.82-8.89 8.85-18.04 13.44-27.35 13.44-9.32 0-18.46-4.59-27.36-13.44-8.89-8.85-17.5-21.93-25.71-38.82-16.42-33.78-31.22-82.69-43.66-143.18-24.87-120.95-40.26-288.077-40.26-472.693 0-184.615 15.39-351.739 40.26-472.696 12.44-60.483 27.24-109.396 43.66-143.176 8.21-16.891 16.82-29.973 25.71-38.825 8.9-8.85 18.04-13.439 27.36-13.439 9.31 0 18.46 4.589 27.35 13.44 8.9 8.851 17.5 21.933 25.72 38.824 16.42 33.78 31.22 82.693 43.66 143.176 24.87 120.957 40.26 288.081 40.26 472.696z"/><path d="M1419.99 645.61c0 202.776-16.9 386.34-44.22 519.2-13.66 66.43-29.92 120.16-47.96 157.27-9.02 18.56-18.48 32.93-28.25 42.66-9.78 9.72-19.84 14.77-30.08 14.77-10.25 0-20.31-5.05-30.09-14.77-9.77-9.73-19.22-24.1-28.25-42.66-18.04-37.11-34.3-90.84-47.96-157.27-27.32-132.86-44.22-316.424-44.22-519.2 0-202.777 16.9-386.342 44.22-519.201 13.66-66.434 29.92-120.162 47.96-157.27 9.03-18.556 18.48-32.93 28.25-42.658 9.78-9.726 19.84-14.774 30.09-14.774 10.24 0 20.3 5.048 30.08 14.774 9.77 9.728 19.23 24.102 28.25 42.657 18.04 37.109 34.3 90.837 47.96 157.271 27.32 132.859 44.22 316.424 44.22 519.201z"/></g></g><g opacity=".1"><mask id="b" style="mask-type:alpha" maskUnits="userSpaceOnUse" x="0" y="237" width="510" height="1862"><path d="M508.521 237.734V2098.5H80c-14.01 0-24.487 0-32.8-.68-8.306-.68-14.407-2.03-19.673-4.72a49.435 49.435 0 01-21.632-21.63c-2.683-5.26-4.037-11.36-4.715-19.67-.68-8.31-.68-18.79-.68-32.8V317.234c0-14.01 0-24.487.68-32.8.678-8.306 2.032-14.407 4.715-19.673a49.5 49.5 0 0121.633-21.632c5.265-2.683 11.366-4.037 19.673-4.716 8.312-.679 18.79-.679 32.799-.679h428.521z" fill="url(#paint1_linear_216_2013)" stroke="#6246E5"/></mask><g mask="url(#b)" stroke="#6246E5"><path d="M250.805 2580.29c-9.05 0-17.94-4.46-26.584-13.08-8.646-8.61-17.01-21.35-24.993-37.79-15.964-32.89-30.355-80.5-42.445-139.38-24.179-117.76-39.138-280.46-39.138-460.19 0-179.72 14.959-342.42 39.138-460.18 12.09-58.88 26.481-106.5 42.445-139.38 7.983-16.44 16.347-29.18 24.993-37.79 8.644-8.62 17.534-13.08 26.584-13.08s17.94 4.46 26.584 13.08c8.646 8.61 17.01 21.35 24.993 37.79 15.964 32.88 30.355 80.5 42.445 139.38 24.179 117.76 39.138 280.46 39.138 460.18 0 179.73-14.959 342.43-39.138 460.19-12.09 58.88-26.481 106.49-42.445 139.38-7.983 16.44-16.347 29.18-24.993 37.79-8.644 8.62-17.534 13.08-26.584 13.08z"/><path d="M264.874 2605.98c-10.143 0-20.099-5-29.774-14.64-9.676-9.64-19.034-23.89-27.963-42.29-17.859-36.78-33.955-90.04-47.477-155.9-27.043-131.7-43.774-313.67-43.774-514.69 0-201.01 16.731-382.98 43.774-514.69 13.523-65.85 29.618-119.11 47.477-155.9 8.929-18.39 18.287-32.64 27.963-42.28 9.675-9.64 19.631-14.65 29.774-14.65s20.099 5.01 29.774 14.65c9.677 9.64 19.034 23.89 27.964 42.28 17.858 36.79 33.954 90.05 47.476 155.9 27.044 131.71 43.774 313.68 43.774 514.69 0 201.02-16.73 382.99-43.774 514.69-13.522 65.86-29.618 119.12-47.476 155.9-8.93 18.4-18.287 32.65-27.964 42.29-9.675 9.64-19.631 14.64-29.774 14.64z"/><path d="M276.306 2631.68c-11.114 0-22.019-5.48-32.61-16.03-10.592-10.56-20.833-26.16-30.604-46.28-19.542-40.26-37.153-98.53-51.949-170.59-29.589-144.1-47.895-343.2-47.895-563.14 0-219.93 18.306-419.03 47.895-563.14 14.796-72.05 32.407-130.33 51.949-170.59 9.771-20.12 20.012-35.72 30.604-46.27 10.591-10.56 21.496-16.04 32.61-16.04s22.019 5.48 32.61 16.04c10.592 10.55 20.833 26.15 30.604 46.27 19.542 40.26 37.153 98.54 51.949 170.59 29.589 144.11 47.895 343.21 47.895 563.14 0 219.94-18.306 419.04-47.895 563.14-14.796 72.06-32.408 130.33-51.949 170.59-9.771 20.13-20.012 35.72-30.604 46.28-10.591 10.55-21.496 16.03-32.61 16.03z"/><path d="M293.014 2648.81c-11.964 0-23.699-5.9-35.091-17.25-11.393-11.36-22.407-28.13-32.915-49.77-21.014-43.29-39.952-105.96-55.862-183.44-31.817-154.95-51.5-369.04-51.5-605.53 0-236.5 19.683-450.58 51.5-605.54 15.91-77.48 34.848-140.15 55.862-183.43 10.508-21.648 21.522-38.42 32.915-49.774 11.392-11.353 23.127-17.255 35.091-17.255 11.964 0 23.699 5.902 35.091 17.255 11.393 11.354 22.407 28.126 32.915 49.774 21.014 43.28 39.952 105.95 55.862 183.43 31.817 154.96 51.5 369.04 51.5 605.54 0 236.49-19.683 450.58-51.5 605.53-15.91 77.48-34.848 140.15-55.862 183.44-10.508 21.64-21.522 38.41-32.915 49.77-11.392 11.35-23.127 17.25-35.091 17.25z"/><path d="M309.281 2665.94c-12.783 0-25.318-6.31-37.483-18.43-12.166-12.12-23.926-30.03-35.144-53.14-22.434-46.21-42.651-113.11-59.635-195.83-33.965-165.41-54.977-393.95-54.977-646.41 0-252.46 21.012-481 54.977-646.41 16.984-82.71 37.201-149.616 59.635-195.829 11.218-23.107 22.978-41.015 35.144-53.139 12.165-12.123 24.7-18.43 37.483-18.43 12.784 0 25.318 6.307 37.483 18.43 12.167 12.124 23.926 30.032 35.144 53.139 22.435 46.213 42.652 113.119 59.635 195.829 33.966 165.41 54.978 393.95 54.978 646.41 0 252.46-21.012 481-54.978 646.41-16.983 82.72-37.2 149.62-59.635 195.83-11.218 23.11-22.977 41.02-35.144 53.14-12.165 12.12-24.699 18.43-37.483 18.43z"/><path d="M327.748 2687.35c-14.059 0-27.838-6.93-41.205-20.25-13.368-13.33-26.288-33-38.61-58.38-24.644-50.77-46.85-124.25-65.505-215.1-37.307-181.69-60.386-432.72-60.386-710.01 0-277.29 23.079-528.31 60.386-710.003 18.655-90.849 40.861-164.336 65.505-215.099 12.322-25.382 25.242-45.057 38.61-58.38 13.367-13.321 27.146-20.256 41.205-20.256 14.058 0 27.837 6.935 41.204 20.256 13.369 13.323 26.288 32.998 38.61 58.38 24.644 50.763 46.851 124.25 65.505 215.099 37.308 181.693 60.386 432.713 60.386 710.003s-23.078 528.32-60.386 710.01c-18.654 90.85-40.861 164.33-65.505 215.1-12.322 25.38-25.241 45.05-38.61 58.38-13.367 13.32-27.146 20.25-41.204 20.25z"/></g></g><defs><linearGradient id="paint0_linear_216_2013" x1="1251.6" y1="50.862" x2="483.676" y2="349.676" gradientUnits="userSpaceOnUse"><stop stop-color="#747DEF"/><stop offset="1" stop-color="#5E3BE1"/></linearGradient><linearGradient id="paint1_linear_216_2013" x1="494.74" y1="1557.67" x2="-135.852" y2="1489.25" gradientUnits="userSpaceOnUse"><stop stop-color="#747DEF"/><stop offset="1" stop-color="#5E3BE1"/></linearGradient></defs></svg>

<svg width="1333" height="2099" viewBox="0 0 1333 2099" fill="none" xmlns="http://www.w3.org/2000/svg">
<path d="M1333 0H75.3934V2019C75.3934 2047 75.3934 2061 80.8431 2071.7C85.6367 2081.11 93.2858 2088.76 102.694 2093.55C113.39 2099 127.391 2099 155.393 2099H1253C1281 2099 1295 2099 1305.7 2093.55C1315.11 2088.76 1322.76 2081.11 1327.55 2071.7C1333 2061 1333 2047 1333 2019V0Z" fill="white"/>
<g opacity="0.1">
<mask id="mask0_216_2013" style="mask-type:alpha" maskUnits="userSpaceOnUse" x="1053" y="0" width="280" height="1813">
<path d="M1053.54 0.5H1332.5V1732.88C1332.5 1746.89 1332.5 1757.37 1331.82 1765.68C1331.14 1773.99 1329.79 1780.09 1327.1 1785.36C1322.36 1794.67 1314.79 1802.24 1305.47 1806.99C1300.21 1809.67 1294.11 1811.03 1285.8 1811.7C1277.49 1812.38 1267.01 1812.38 1253 1812.38H1133.04C1119.03 1812.38 1108.55 1812.38 1100.24 1811.7C1091.93 1811.03 1085.83 1809.67 1080.57 1806.99C1071.25 1802.24 1063.68 1794.67 1058.93 1785.36C1056.25 1780.09 1054.9 1773.99 1054.22 1765.68C1053.54 1757.37 1053.54 1746.89 1053.54 1732.88V0.5Z" fill="url(#paint0_linear_216_2013)" stroke="#6246E5"/>
</mask>
<g mask="url(#mask0_216_2013)">
<path d="M1403.89 919.641C1403.89 1051.07 1392.93 1170.04 1375.23 1256.15C1366.37 1299.2 1355.84 1334.01 1344.15 1358.05C1338.31 1370.06 1332.19 1379.36 1325.88 1385.65C1319.56 1391.93 1313.08 1395.17 1306.5 1395.17C1299.92 1395.17 1293.44 1391.93 1287.13 1385.65C1280.81 1379.36 1274.69 1370.06 1268.85 1358.05C1257.17 1334.01 1246.63 1299.2 1237.78 1256.15C1220.07 1170.04 1209.12 1051.07 1209.12 919.641C1209.12 788.212 1220.07 669.24 1237.78 583.137C1246.63 540.082 1257.17 505.272 1268.85 481.238C1274.69 469.22 1280.81 459.922 1287.13 453.636C1293.44 447.351 1299.92 444.11 1306.5 444.11C1313.08 444.11 1319.56 447.351 1325.88 453.636C1332.19 459.922 1338.31 469.22 1344.15 481.238C1355.84 505.272 1366.37 540.082 1375.23 583.137C1392.93 669.24 1403.89 788.212 1403.89 919.641Z" stroke="#6246E5"/>
<path d="M1407.75 869.533C1407.75 1016.53 1395.5 1149.59 1375.7 1245.9C1365.8 1294.05 1354.01 1332.99 1340.94 1359.88C1334.4 1373.32 1327.56 1383.73 1320.49 1390.77C1313.42 1397.8 1306.16 1401.44 1298.78 1401.44C1291.4 1401.44 1284.14 1397.8 1277.07 1390.77C1269.99 1383.73 1263.15 1373.32 1256.61 1359.88C1243.54 1332.99 1231.76 1294.05 1221.86 1245.9C1202.05 1149.59 1189.8 1016.53 1189.8 869.533C1189.8 722.537 1202.05 589.471 1221.86 493.167C1231.76 445.011 1243.54 406.074 1256.61 379.187C1263.15 365.743 1269.99 355.338 1277.07 348.3C1284.14 341.265 1291.4 337.629 1298.78 337.629C1306.16 337.629 1313.42 341.265 1320.49 348.3C1327.56 355.338 1334.4 365.743 1340.94 379.187C1354.01 406.074 1365.8 445.011 1375.7 493.167C1395.5 589.471 1407.75 722.537 1407.75 869.533Z" stroke="#6246E5"/>
<path d="M1411.62 828.82C1411.62 989.653 1398.21 1135.25 1376.54 1240.62C1365.71 1293.31 1352.81 1335.91 1338.51 1365.34C1331.36 1380.05 1323.87 1391.44 1316.12 1399.14C1308.38 1406.85 1300.43 1410.83 1292.34 1410.83C1284.24 1410.83 1276.29 1406.85 1268.55 1399.14C1260.81 1391.44 1253.31 1380.05 1246.16 1365.34C1231.86 1335.91 1218.96 1293.31 1208.13 1240.62C1186.46 1135.25 1173.06 989.653 1173.06 828.82C1173.06 667.987 1186.46 522.394 1208.13 417.022C1218.96 364.332 1231.86 321.726 1246.16 292.303C1253.31 277.591 1260.81 266.202 1268.55 258.497C1276.29 250.794 1284.24 246.808 1292.34 246.808C1300.43 246.808 1308.38 250.794 1316.12 258.497C1323.87 266.202 1331.36 277.591 1338.51 292.303C1352.81 321.726 1365.71 364.332 1376.54 417.022C1398.21 522.394 1411.62 667.987 1411.62 828.82Z" stroke="#6246E5"/>
<path d="M1414.19 769.315C1414.19 942.255 1399.78 1098.81 1376.48 1212.11C1364.83 1268.77 1350.96 1314.59 1335.58 1346.23C1327.89 1362.05 1319.83 1374.3 1311.5 1382.59C1303.17 1390.88 1294.61 1395.17 1285.9 1395.17C1277.18 1395.17 1268.62 1390.88 1260.29 1382.59C1251.96 1374.3 1243.91 1362.05 1236.21 1346.23C1220.83 1314.59 1206.96 1268.77 1195.31 1212.11C1172.02 1098.81 1157.6 942.255 1157.6 769.315C1157.6 596.374 1172.02 439.82 1195.31 326.514C1206.96 269.857 1220.83 224.04 1236.21 192.399C1243.91 176.577 1251.96 164.326 1260.29 156.038C1268.62 147.75 1277.18 143.458 1285.9 143.458C1294.61 143.458 1303.17 147.75 1311.5 156.038C1319.83 164.326 1327.89 176.577 1335.58 192.399C1350.96 224.04 1364.83 269.857 1376.48 326.514C1399.78 439.82 1414.19 596.374 1414.19 769.315Z" stroke="#6246E5"/>
<path d="M1416.77 711.377C1416.77 895.993 1401.38 1063.12 1376.51 1184.07C1364.07 1244.56 1349.27 1293.47 1332.85 1327.25C1324.63 1344.14 1316.03 1357.22 1307.13 1366.07C1298.24 1374.92 1289.09 1379.51 1279.78 1379.51C1270.46 1379.51 1261.32 1374.92 1252.42 1366.07C1243.53 1357.22 1234.92 1344.14 1226.71 1327.25C1210.29 1293.47 1195.49 1244.56 1183.05 1184.07C1158.18 1063.12 1142.79 895.993 1142.79 711.377C1142.79 526.762 1158.18 359.638 1183.05 238.681C1195.49 178.198 1210.29 129.285 1226.71 95.5047C1234.92 78.6135 1243.53 65.5321 1252.42 56.6801C1261.32 47.8295 1270.46 43.2414 1279.78 43.2414C1289.09 43.2414 1298.24 47.8295 1307.13 56.6801C1316.03 65.5321 1324.63 78.6135 1332.85 95.5047C1349.27 129.285 1364.07 178.198 1376.51 238.681C1401.38 359.638 1416.77 526.762 1416.77 711.377Z" stroke="#6246E5"/>
<path d="M1419.99 645.61C1419.99 848.386 1403.09 1031.95 1375.77 1164.81C1362.11 1231.24 1345.85 1284.97 1327.81 1322.08C1318.79 1340.64 1309.33 1355.01 1299.56 1364.74C1289.78 1374.46 1279.72 1379.51 1269.48 1379.51C1259.23 1379.51 1249.17 1374.46 1239.39 1364.74C1229.62 1355.01 1220.17 1340.64 1211.14 1322.08C1193.1 1284.97 1176.84 1231.24 1163.18 1164.81C1135.86 1031.95 1118.96 848.386 1118.96 645.61C1118.96 442.833 1135.86 259.268 1163.18 126.409C1176.84 59.9754 1193.1 6.24653 1211.14 -30.8619C1220.17 -49.4171 1229.62 -63.7906 1239.39 -73.5186C1249.17 -83.2453 1259.23 -88.2935 1269.48 -88.2935C1279.72 -88.2935 1289.78 -83.2453 1299.56 -73.5186C1309.33 -63.7906 1318.79 -49.4171 1327.81 -30.8619C1345.85 6.24653 1362.11 59.9754 1375.77 126.409C1403.09 259.268 1419.99 442.833 1419.99 645.61Z" stroke="#6246E5"/>
</g>
</g>
<g opacity="0.1">
<mask id="mask1_216_2013" style="mask-type:alpha" maskUnits="userSpaceOnUse" x="0" y="237" width="510" height="1862">
<path d="M508.521 237.734L508.521 2098.5L80 2098.5C65.9904 2098.5 55.5133 2098.5 47.2008 2097.82C38.8941 2097.14 32.793 2095.79 27.5274 2093.1C18.2134 2088.36 10.6409 2080.79 5.89516 2071.47C3.21223 2066.21 1.85823 2060.11 1.17952 2051.8C0.50038 2043.49 0.499984 2033.01 0.499984 2019L0.499999 317.234C0.499999 303.224 0.500396 292.747 1.17953 284.434C1.85825 276.128 3.21225 270.027 5.89517 264.761C10.6409 255.447 18.2134 247.875 27.5275 243.129C32.793 240.446 38.8941 239.092 47.2008 238.413C55.5133 237.734 65.9904 237.734 80 237.734L508.521 237.734Z" fill="url(#paint1_linear_216_2013)" stroke="#6246E5"/>
</mask>
<g mask="url(#mask1_216_2013)">
<path d="M250.805 2580.29C241.755 2580.29 232.865 2575.83 224.221 2567.21C215.575 2558.6 207.211 2545.86 199.228 2529.42C183.264 2496.53 168.873 2448.92 156.783 2390.04C132.604 2272.28 117.645 2109.58 117.645 1929.85C117.645 1750.13 132.604 1587.43 156.783 1469.67C168.873 1410.79 183.264 1363.17 199.228 1330.29C207.211 1313.85 215.575 1301.11 224.221 1292.5C232.865 1283.88 241.755 1279.42 250.805 1279.42C259.855 1279.42 268.745 1283.88 277.389 1292.5C286.035 1301.11 294.399 1313.85 302.382 1330.29C318.346 1363.17 332.737 1410.79 344.827 1469.67C369.006 1587.43 383.965 1750.13 383.965 1929.85C383.965 2109.58 369.006 2272.28 344.827 2390.04C332.737 2448.92 318.346 2496.53 302.382 2529.42C294.399 2545.86 286.035 2558.6 277.389 2567.21C268.745 2575.83 259.855 2580.29 250.805 2580.29Z" stroke="#6246E5"/>
<path d="M264.874 2605.98C254.731 2605.98 244.775 2600.98 235.1 2591.34C225.424 2581.7 216.066 2567.45 207.137 2549.05C189.278 2512.27 173.182 2459.01 159.66 2393.15C132.617 2261.45 115.886 2079.48 115.886 1878.46C115.886 1677.45 132.617 1495.48 159.66 1363.77C173.183 1297.92 189.278 1244.66 207.137 1207.87C216.066 1189.48 225.424 1175.23 235.1 1165.59C244.775 1155.95 254.731 1150.94 264.874 1150.94C275.017 1150.94 284.973 1155.95 294.648 1165.59C304.325 1175.23 313.682 1189.48 322.612 1207.87C340.47 1244.66 356.566 1297.92 370.088 1363.77C397.132 1495.48 413.862 1677.45 413.862 1878.46C413.862 2079.48 397.132 2261.45 370.088 2393.15C356.566 2459.01 340.47 2512.27 322.612 2549.05C313.682 2567.45 304.325 2581.7 294.648 2591.34C284.973 2600.98 275.017 2605.98 264.874 2605.98Z" stroke="#6246E5"/>
<path d="M276.306 2631.68C265.192 2631.68 254.287 2626.2 243.696 2615.65C233.104 2605.09 222.863 2589.49 213.092 2569.37C193.55 2529.11 175.939 2470.84 161.143 2398.78C131.554 2254.68 113.248 2055.58 113.248 1835.64C113.248 1615.71 131.554 1416.61 161.143 1272.5C175.939 1200.45 193.55 1142.17 213.092 1101.91C222.863 1081.79 233.104 1066.19 243.696 1055.64C254.287 1045.08 265.192 1039.6 276.306 1039.6C287.42 1039.6 298.325 1045.08 308.916 1055.64C319.508 1066.19 329.749 1081.79 339.52 1101.91C359.062 1142.17 376.673 1200.45 391.469 1272.5C421.058 1416.61 439.364 1615.71 439.364 1835.64C439.364 2055.58 421.058 2254.68 391.469 2398.78C376.673 2470.84 359.061 2529.11 339.52 2569.37C329.749 2589.5 319.508 2605.09 308.916 2615.65C298.325 2626.2 287.42 2631.68 276.306 2631.68Z" stroke="#6246E5"/>
<path d="M293.014 2648.81C281.05 2648.81 269.315 2642.91 257.923 2631.56C246.53 2620.2 235.516 2603.43 225.008 2581.79C203.994 2538.5 185.056 2475.83 169.146 2398.35C137.329 2243.4 117.646 2029.31 117.646 1792.82C117.646 1556.32 137.329 1342.24 169.146 1187.28C185.056 1109.8 203.994 1047.13 225.008 1003.85C235.516 982.202 246.53 965.43 257.923 954.076C269.315 942.723 281.05 936.821 293.014 936.821C304.978 936.821 316.713 942.723 328.105 954.076C339.498 965.43 350.512 982.202 361.02 1003.85C382.034 1047.13 400.972 1109.8 416.882 1187.28C448.699 1342.24 468.382 1556.32 468.382 1792.82C468.382 2029.31 448.699 2243.4 416.882 2398.35C400.972 2475.83 382.034 2538.5 361.02 2581.79C350.512 2603.43 339.498 2620.2 328.105 2631.56C316.713 2642.91 304.978 2648.81 293.014 2648.81Z" stroke="#6246E5"/>
<path d="M309.281 2665.94C296.498 2665.94 283.963 2659.63 271.798 2647.51C259.632 2635.39 247.872 2617.48 236.654 2594.37C214.22 2548.16 194.003 2481.26 177.019 2398.54C143.054 2233.13 122.042 2004.59 122.042 1752.13C122.042 1499.67 143.054 1271.13 177.019 1105.72C194.003 1023.01 214.22 956.104 236.654 909.891C247.872 886.784 259.632 868.876 271.798 856.752C283.963 844.629 296.498 838.322 309.281 838.322C322.065 838.322 334.599 844.629 346.764 856.752C358.931 868.876 370.69 886.784 381.908 909.891C404.343 956.104 424.56 1023.01 441.543 1105.72C475.509 1271.13 496.521 1499.67 496.521 1752.13C496.521 2004.59 475.509 2233.13 441.543 2398.54C424.56 2481.26 404.343 2548.16 381.908 2594.37C370.69 2617.48 358.931 2635.39 346.764 2647.51C334.599 2659.63 322.065 2665.94 309.281 2665.94Z" stroke="#6246E5"/>
<path d="M327.748 2687.35C313.689 2687.35 299.91 2680.42 286.543 2667.1C273.175 2653.77 260.255 2634.1 247.933 2608.72C223.289 2557.95 201.083 2484.47 182.428 2393.62C145.121 2211.93 122.042 1960.9 122.042 1683.61C122.042 1406.32 145.121 1155.3 182.428 973.607C201.083 882.758 223.289 809.271 247.933 758.508C260.255 733.126 273.175 713.451 286.543 700.128C299.91 686.807 313.689 679.872 327.748 679.872C341.806 679.872 355.585 686.807 368.952 700.128C382.321 713.451 395.24 733.126 407.562 758.508C432.206 809.271 454.413 882.758 473.067 973.607C510.375 1155.3 533.453 1406.32 533.453 1683.61C533.453 1960.9 510.375 2211.93 473.067 2393.62C454.413 2484.47 432.206 2557.95 407.562 2608.72C395.24 2634.1 382.321 2653.77 368.952 2667.1C355.585 2680.42 341.806 2687.35 327.748 2687.35Z" stroke="#6246E5"/>
</g>
</g>
<defs>
<linearGradient id="paint0_linear_216_2013" x1="1251.6" y1="50.8625" x2="483.676" y2="349.676" gradientUnits="userSpaceOnUse">
<stop stop-color="#747DEF"/>
<stop offset="1" stop-color="#5E3BE1"/>
</linearGradient>
<linearGradient id="paint1_linear_216_2013" x1="494.74" y1="1557.67" x2="-135.852" y2="1489.25" gradientUnits="userSpaceOnUse">
<stop stop-color="#747DEF"/>
<stop offset="1" stop-color="#5E3BE1"/>
</linearGradient>
</defs>
</svg>
